X:1
T:Lord Randal
M:3/4
L:1/4
K:C
 G/2A/2| B A G| B/2 d3/2 e/2d/2| B G A| G2 G/2A/2| B A G| B/2 d3/2 e|\
 B G A/2A/2| G2 g| e d g| e d B/2A/2| G E G| B2B/2-A/2| G E G| B d e/2d/2|\
 B G A| G2||
